Newaita-dark/apps/256/rygel.svg

<?xml version="1.0" encoding="UTF-8"?>
<svg xmlns="http://www.w3.org/2000/svg" xmlns:xlink="http://www.w3.org/1999/xlink" width="256pt" height="256pt" viewBox="0 0 256 256" version="1.1">
<defs>
<linearGradient id="linear0" gradientUnits="userSpaceOnUse" x1="254" y1="233.5" x2="254" y2="254.666672" gradientTransform="matrix(0.500048,0,0,0.500048,-0.0000305205,107.510281)">
<stop offset="0" style="stop-color:rgb(0%,0%,0%);stop-opacity:0.27451;"/>
<stop offset="1" style="stop-color:rgb(0%,0%,0%);stop-opacity:0;"/>
</linearGradient>
<radialGradient id="radial0" gradientUnits="userSpaceOnUse" cx="450.908936" cy="189.579361" fx="450.908936" fy="189.579361" r="21.166656" gradientTransform="matrix(0.00000139336,-0.62506,-1.125108,-0.000000812309,401.168685,508.762661)">
<stop offset="0" style="stop-color:rgb(0%,0%,0%);stop-opacity:0.313725;"/>
<stop offset="0.222222" style="stop-color:rgb(0%,0%,0%);stop-opacity:0.27451;"/>
<stop offset="1" style="stop-color:rgb(0%,0%,0%);stop-opacity:0;"/>
</radialGradient>
<radialGradient id="radial1" gradientUnits="userSpaceOnUse" cx="450.908936" cy="189.579361" fx="450.908936" fy="189.579361" r="21.166656" gradientTransform="matrix(-0.00000139336,0.62506,1.125108,0.000000812309,-147.144391,-60.219842)">
<stop offset="0" style="stop-color:rgb(0%,0%,0%);stop-opacity:0.313725;"/>
<stop offset="0.222222" style="stop-color:rgb(0%,0%,0%);stop-opacity:0.27451;"/>
<stop offset="1" style="stop-color:rgb(0%,0%,0%);stop-opacity:0;"/>
</radialGradient>
<radialGradient id="radial2" gradientUnits="userSpaceOnUse" cx="450.908936" cy="189.579361" fx="450.908936" fy="189.579361" r="21.166656" gradientTransform="matrix(-0.00000139336,-0.62506,1.125108,-0.000000812309,-147.144391,508.762661)">
<stop offset="0" style="stop-color:rgb(0%,0%,0%);stop-opacity:0.313725;"/>
<stop offset="0.222222" style="stop-color:rgb(0%,0%,0%);stop-opacity:0.27451;"/>
<stop offset="1" style="stop-color:rgb(0%,0%,0%);stop-opacity:0;"/>
</radialGradient>
<radialGradient id="radial3" gradientUnits="userSpaceOnUse" cx="450.908936" cy="189.579361" fx="450.908936" fy="189.579361" r="21.166656" gradientTransform="matrix(0.00000139336,0.62506,-1.125108,0.000000812309,401.16867,-60.219835)">
<stop offset="0" style="stop-color:rgb(0%,0%,0%);stop-opacity:0.313725;"/>
<stop offset="0.222222" style="stop-color:rgb(0%,0%,0%);stop-opacity:0.27451;"/>
<stop offset="1" style="stop-color:rgb(0%,0%,0%);stop-opacity:0;"/>
</radialGradient>
<linearGradient id="linear1" gradientUnits="userSpaceOnUse" x1="288.395844" y1="-25.791676" x2="288.395844" y2="-141.414581" gradientTransform="matrix(0.602797,0,0,1.739297,-46.832105,269.130786)">
<stop offset="0" style="stop-color:rgb(93.72549%,32.54902%,31.372549%);stop-opacity:1;"/>
<stop offset="1" style="stop-color:rgb(89.803922%,45.098039%,45.098039%);stop-opacity:1;"/>
</linearGradient>
<linearGradient id="linear2" gradientUnits="userSpaceOnUse" x1="275.166656" y1="233.5" x2="275.166656" y2="-168.666672" gradientTransform="matrix(3.779528,0,0,3.779528,0,812.59845)">
<stop offset="0" style="stop-color:rgb(93.333333%,93.333333%,93.333333%);stop-opacity:1;"/>
<stop offset="1" style="stop-color:rgb(87.843137%,87.843137%,87.843137%);stop-opacity:1;"/>
</linearGradient>
</defs>
<g id="surface1">
<path style=" stroke:none;fill-rule:nonzero;fill:url(#linear0);" d="M 63.507812 224.269531 L 190.519531 224.269531 L 190.519531 234.855469 L 63.507812 234.855469 Z M 63.507812 224.269531 "/>
<path style=" stroke:none;fill-rule:nonzero;fill:url(#radial0);" d="M 190.519531 224.269531 L 211.6875 224.269531 L 211.6875 213.6875 L 190.519531 213.6875 Z M 190.519531 224.269531 "/>
<path style=" stroke:none;fill-rule:nonzero;fill:url(#radial1);" d="M 63.507812 224.269531 L 42.335938 224.269531 L 42.335938 234.855469 L 63.507812 234.855469 Z M 63.507812 224.269531 "/>
<path style=" stroke:none;fill-rule:nonzero;fill:url(#radial2);" d="M 63.507812 224.269531 L 42.335938 224.269531 L 42.335938 213.6875 L 63.507812 213.6875 Z M 63.507812 224.269531 "/>
<path style=" stroke:none;fill-rule:nonzero;fill:url(#radial3);" d="M 190.519531 224.269531 L 211.6875 224.269531 L 211.6875 234.855469 L 190.519531 234.855469 Z M 190.519531 224.269531 "/>
<path style=" stroke:none;fill-rule:nonzero;fill:url(#linear1);" d="M 52.921875 23.167969 L 201.101562 23.167969 C 206.949219 23.167969 211.6875 27.90625 211.6875 33.753906 L 211.6875 213.6875 C 211.6875 219.53125 206.949219 224.269531 201.101562 224.269531 L 52.921875 224.269531 C 47.074219 224.269531 42.335938 219.53125 42.335938 213.6875 L 42.335938 33.753906 C 42.335938 27.90625 47.074219 23.167969 52.921875 23.167969 Z M 52.921875 23.167969 "/>
<path style="fill-rule:nonzero;fill:url(#linear2);stroke-width:11.338583;stroke-linecap:round;stroke-linejoin:miter;stroke:rgb(12.941177%,12.941177%,12.941177%);stroke-opacity:1;stroke-miterlimit:4;" d="M 574.256215 175.11124 C 603.30856 251.019349 611.664062 343.579413 564.631149 412.342535 C 485.711516 515.206733 527.813797 682.051045 647.890919 732.479303 C 759.55349 787.838192 906.498127 717.008338 935.520948 596.547395 C 970.389667 490.435475 900.209357 365.929642 798.850921 334.662941 C 728.936334 309.862158 679.364294 244.907728 661.177053 175.11124 Z M 1152.911617 571.185642 C 1028.582932 569.443682 921.378597 693.831417 947.006072 816.920062 C 965.577134 946.238429 1118.633392 1028.110536 1237.293327 975.467922 C 1311.843298 950.342368 1349.723541 876.707663 1375.410066 811.635134 C 1415.002744 743.137734 1500.240671 707.589946 1579.986997 715.118755 C 1588.519647 717.510259 1595.01509 716.949289 1600.004772 714.292062 L 1600.004772 619.488119 C 1561.740707 609.213509 1483.175371 633.955242 1449.399067 638.6792 C 1372.752839 658.815074 1299.70863 624.654948 1237.618099 587.335675 C 1212.758267 576.913442 1185.62503 571.598988 1158.84609 571.36279 C 1156.867932 571.274216 1154.889774 571.215167 1152.911617 571.185642 Z M 546.768681 811.162738 C 452.702856 810.129372 366.72681 883.557403 343.047967 969.120103 C 330.7952 983.528177 323.709262 998.703894 319.989144 1014.824402 L 319.989144 1158.816565 C 403.868934 1156.808882 458.725903 1232.096972 542.753316 1230.827408 C 671.924059 1240.86582 787.070549 1112.63987 760.941153 985.358711 C 744.79112 886.126056 651.286265 810.040798 551.256442 811.280837 C 549.75068 811.221787 548.244918 811.192263 546.768681 811.162738 Z M 967.260044 992.710371 C 840.037935 993.655163 737.911855 1127.845111 768.794734 1251.288054 C 782.346591 1329.380994 850.046822 1392.416317 920.049983 1413.73318 C 998.999141 1446.062771 1037.706077 1525.631949 1057.664802 1603.134394 C 1066.699372 1623.03407 1067.112719 1663.778212 1074.287231 1695.103963 L 1160.794722 1695.103963 C 1159.96803 1665.313499 1148.748628 1627.049434 1144.290392 1605.791621 C 1122.146836 1531.064501 1090.939185 1452.351541 1122.412559 1374.671947 C 1154.535477 1311.282328 1199.88548 1243.198275 1179.926755 1165.489156 C 1163.422424 1069.031827 1074.671053 992.680846 976.442239 992.857995 C 973.371666 992.739896 970.301093 992.680846 967.260044 992.710371 Z M 967.260044 992.710371 " transform="matrix(0.132304,0,0,0.132304,0,0)"/>
<path style=" stroke:none;fill-rule:nonzero;fill:rgb(0%,0%,0%);fill-opacity:0.196078;" d="M 52.921875 223.671875 C 47.058594 223.671875 42.335938 218.953125 42.335938 213.089844 L 42.335938 211.765625 C 42.335938 217.628906 47.058594 222.351562 52.921875 222.351562 L 201.101562 222.351562 C 206.964844 222.351562 211.6875 217.628906 211.6875 211.765625 L 211.6875 213.089844 C 211.6875 218.953125 206.964844 223.671875 201.101562 223.671875 Z M 52.921875 223.671875 "/>
<path style=" stroke:none;fill-rule:nonzero;fill:rgb(100%,100%,100%);fill-opacity:0.392157;" d="M 52.921875 23.765625 C 47.058594 23.765625 42.335938 28.488281 42.335938 34.351562 L 42.335938 35.675781 C 42.335938 29.808594 47.058594 25.078125 52.921875 25.089844 L 201.101562 25.089844 C 206.964844 25.078125 211.6875 29.808594 211.6875 35.675781 L 211.6875 34.351562 C 211.6875 28.488281 206.964844 23.765625 201.101562 23.765625 Z M 52.921875 23.765625 "/>
<path style=" stroke:none;fill-rule:nonzero;fill:rgb(12.941177%,12.941177%,12.941177%);fill-opacity:1;" d="M 52.921875 22.417969 C 46.65625 22.417969 41.585938 27.488281 41.585938 33.753906 L 41.585938 213.6875 C 41.585938 219.953125 46.65625 225.023438 52.921875 225.023438 L 201.101562 225.023438 C 207.367188 225.023438 212.4375 219.953125 212.4375 213.6875 L 212.4375 33.753906 C 212.4375 27.488281 207.367188 22.417969 201.101562 22.417969 Z M 52.921875 23.917969 L 201.101562 23.917969 C 206.5625 23.917969 210.9375 28.292969 210.9375 33.753906 L 210.9375 213.6875 C 210.9375 219.148438 206.5625 223.519531 201.101562 223.519531 L 52.921875 223.519531 C 47.460938 223.519531 43.085938 219.148438 43.085938 213.6875 L 43.085938 33.753906 C 43.085938 28.292969 47.460938 23.917969 52.921875 23.917969 Z M 52.921875 23.917969 "/>
</g>
</svg>

<svg xmlns="http://www.w3.org/2000/svg" width="256pt" height="256pt" viewBox="0 0 256 256"><defs><linearGradient id="a" gradientUnits="userSpaceOnUse" x1="254" y1="233.5" x2="254" y2="254.667" gradientTransform="matrix(.50005 0 0 .50005 0 107.51)"><stop offset="0" stop-opacity=".275"/><stop offset="1" stop-opacity="0"/></linearGradient><radialGradient id="b" gradientUnits="userSpaceOnUse" cx="450.909" cy="189.579" fx="450.909" fy="189.579" r="21.167" gradientTransform="matrix(0 -.62506 -1.1251 0 401.169 508.763)"><stop offset="0" stop-opacity=".314"/><stop offset=".222" stop-opacity=".275"/><stop offset="1" stop-opacity="0"/></radialGradient><radialGradient id="c" gradientUnits="userSpaceOnUse" cx="450.909" cy="189.579" fx="450.909" fy="189.579" r="21.167" gradientTransform="matrix(0 .62506 1.1251 0 -147.144 -60.22)"><stop offset="0" stop-opacity=".314"/><stop offset=".222" stop-opacity=".275"/><stop offset="1" stop-opacity="0"/></radialGradient><radialGradient id="d" gradientUnits="userSpaceOnUse" cx="450.909" cy="189.579" fx="450.909" fy="189.579" r="21.167" gradientTransform="matrix(0 -.62506 1.1251 0 -147.144 508.763)"><stop offset="0" stop-opacity=".314"/><stop offset=".222" stop-opacity=".275"/><stop offset="1" stop-opacity="0"/></radialGradient><radialGradient id="e" gradientUnits="userSpaceOnUse" cx="450.909" cy="189.579" fx="450.909" fy="189.579" r="21.167" gradientTransform="matrix(0 .62506 -1.1251 0 401.169 -60.22)"><stop offset="0" stop-opacity=".314"/><stop offset=".222" stop-opacity=".275"/><stop offset="1" stop-opacity="0"/></radialGradient><linearGradient id="f" gradientUnits="userSpaceOnUse" x1="288.396" y1="-25.792" x2="288.396" y2="-141.415" gradientTransform="matrix(.6028 0 0 1.7393 -46.832 269.13)"><stop offset="0" stop-color="#ef5350"/><stop offset="1" stop-color="#e57373"/></linearGradient><linearGradient id="g" gradientUnits="userSpaceOnUse" x1="275.167" y1="233.5" x2="275.167" y2="-168.667" gradientTransform="matrix(3.77953 0 0 3.77953 0 812.598)"><stop offset="0" stop-color="#eee"/><stop offset="1" stop-color="#e0e0e0"/></linearGradient></defs><path d="M63.508 224.27H190.52v10.585H63.508zm0 0" fill="url(#a)"/><path d="M190.52 224.27h21.167v-10.583H190.52zm0 0" fill="url(#b)"/><path d="M63.508 224.27H42.336v10.585h21.172zm0 0" fill="url(#c)"/><path d="M63.508 224.27H42.336v-10.583h21.172zm0 0" fill="url(#d)"/><path d="M190.52 224.27h21.167v10.585H190.52zm0 0" fill="url(#e)"/><path d="M52.922 23.168h148.18c5.847 0 10.585 4.738 10.585 10.586v179.934c0 5.843-4.738 10.582-10.585 10.582H52.922c-5.848 0-10.586-4.739-10.586-10.583V33.755c0-5.848 4.738-10.586 10.586-10.586zm0 0" fill="url(#f)"/><path d="M574.256 175.111c29.053 75.908 37.408 168.468-9.625 237.232-78.92 102.864-36.817 269.708 83.26 320.136 111.662 55.36 258.607-15.47 287.63-135.932 34.869-106.112-35.312-230.617-136.67-261.884-69.915-24.8-119.487-89.755-137.674-159.552zm578.656 396.075c-124.33-1.742-231.533 122.645-205.906 245.734 18.571 129.318 171.627 211.19 290.287 158.548 74.55-25.126 112.43-98.76 138.117-163.833 39.593-68.497 124.83-104.045 204.577-96.516 8.533 2.391 15.028 1.83 20.018-.827v-94.804c-38.264-10.274-116.83 14.467-150.606 19.191-76.646 20.136-149.69-14.024-211.78-51.343-24.86-10.423-51.994-15.737-78.773-15.973a199.083 199.083 0 0 0-5.934-.177zM546.769 811.163c-94.066-1.034-180.042 72.394-203.721 157.957-12.253 14.408-19.339 29.584-23.059 45.704v143.993c83.88-2.008 138.737 73.28 222.764 72.01 129.171 10.039 244.318-118.187 218.188-245.468-16.15-99.233-109.655-175.318-209.685-174.078-1.505-.06-3.011-.089-4.487-.118zM967.26 992.71c-127.222.945-229.348 135.135-198.465 258.578 13.552 78.093 81.252 141.128 151.255 162.445 78.95 32.33 117.656 111.899 137.615 189.401 9.034 19.9 9.448 60.644 16.622 91.97h86.508c-.827-29.79-12.046-68.055-16.505-89.312-22.143-74.727-53.35-153.44-21.877-231.12 32.122-63.39 77.472-131.474 57.514-209.183-16.505-96.457-105.256-172.808-203.485-172.631-3.07-.118-6.14-.177-9.182-.148zm0 0" transform="scale(.1323)" fill="url(#g)" stroke-width="11.339" stroke-linecap="round" stroke="#212121"/><path d="M52.922 223.672a10.561 10.561 0 0 1-10.586-10.582v-1.324a10.564 10.564 0 0 0 10.586 10.586h148.18a10.564 10.564 0 0 0 10.585-10.586v1.324a10.561 10.561 0 0 1-10.585 10.582zm0 0" fill-opacity=".196"/><path d="M52.922 23.766a10.564 10.564 0 0 0-10.586 10.586v1.324c0-5.867 4.723-10.598 10.586-10.586h148.18c5.863-.012 10.585 4.719 10.585 10.586v-1.324a10.564 10.564 0 0 0-10.585-10.586zm0 0" fill="#fff" fill-opacity=".392"/><path d="M52.922 22.418a11.33 11.33 0 0 0-11.336 11.336v179.934a11.33 11.33 0 0 0 11.336 11.335h148.18a11.33 11.33 0 0 0 11.335-11.335V33.754a11.33 11.33 0 0 0-11.335-11.336zm0 1.5h148.18a9.8 9.8 0 0 1 9.835 9.836v179.934a9.796 9.796 0 0 1-9.835 9.832H52.922a9.796 9.796 0 0 1-9.836-9.833V33.755a9.8 9.8 0 0 1 9.836-9.836zm0 0" fill="#212121"/></svg>
